emblems/48/emblem-readonly.svg

<?xml version="1.0" encoding="UTF-8" standalone="no"?>
<!-- Created with Inkscape (http://www.inkscape.org/) -->

<svg
   xmlns:svg="http://www.w3.org/2000/svg"
   xmlns="http://www.w3.org/2000/svg"
   xmlns:xlink="http://www.w3.org/1999/xlink"
   version="1.1"
   width="48"
   height="48"
   id="svg11300">
  <defs
     id="defs3">
    <linearGradient
       id="linearGradient5060">
      <stop
         id="stop5062"
         style="stop-color:black;stop-opacity:1"
         offset="0" />
      <stop
         id="stop5064"
         style="stop-color:black;stop-opacity:0"
         offset="1" />
    </linearGradient>
    <linearGradient
       id="linearGradient5048">
      <stop
         id="stop5050"
         style="stop-color:black;stop-opacity:0"
         offset="0" />
      <stop
         id="stop5056"
         style="stop-color:black;stop-opacity:1"
         offset="0.5" />
      <stop
         id="stop5052"
         style="stop-color:black;stop-opacity:0"
         offset="1" />
    </linearGradient>
    <linearGradient
       id="linearGradient11520">
      <stop
         id="stop11522"
         style="stop-color:white;stop-opacity:1"
         offset="0" />
      <stop
         id="stop11524"
         style="stop-color:#dcdcdc;stop-opacity:1"
         offset="1" />
    </linearGradient>
    <linearGradient
       x1="302.85715"
       y1="366.64789"
       x2="302.85715"
       y2="609.50507"
       id="linearGradient2206"
       xlink:href="#linearGradient5048"
       gradientUnits="userSpaceOnUse"
       gradientTransform="matrix(2.774389,0,0,1.969706,-1892.179,-872.8854)" />
    <radialGradient
       cx="605.71429"
       cy="486.64789"
       r="117.14286"
       fx="605.71429"
       fy="486.64789"
       id="radialGradient2208"
       xlink:href="#linearGradient5060"
       gradientUnits="userSpaceOnUse"
       gradientTransform="matrix(2.774389,0,0,1.969706,-1891.633,-872.8854)" />
    <radialGradient
       cx="605.71429"
       cy="486.64789"
       r="117.14286"
       fx="605.71429"
       fy="486.64789"
       id="radialGradient2210"
       xlink:href="#linearGradient5060"
       gradientUnits="userSpaceOnUse"
       gradientTransform="matrix(-2.774389,0,0,1.969706,112.7623,-872.8854)" />
    <radialGradient
       cx="24.44569"
       cy="35.87817"
       r="20.530962"
       fx="24.44569"
       fy="35.87817"
       id="radialGradient2212"
       xlink:href="#linearGradient11520"
       gradientUnits="userSpaceOnUse"
       gradientTransform="matrix(1.995058,0,0,1.995058,-24.32488,-35.70087)" />
  </defs>
  <g
     id="layer1">
    <g
       transform="matrix(1.0535874,0,0,1.0535874,-1.4029422,-2.5545237)"
       id="g2197">
      <g
         transform="matrix(0.02243788,0,0,0.02086758,44.06795,40.547)"
         id="g6707">
        <rect
           width="1339.6335"
           height="478.35718"
           x="-1559.2523"
           y="-150.69685"
           id="rect6709"
           style="opacity:0.40206185;fill:url(#linearGradient2206);fill-opacity:1;fill-rule:nonzero;stroke:none;stroke-width:1;marker:none;visibility:visible;display:inline;overflow:visible" />
        <path
           d="m -219.61876,-150.68038 c 0,0 0,478.33079 0,478.33079 142.874166,0.90045 345.40022,-107.16966 345.40014,-239.196175 0,-132.026537 -159.436816,-239.134595 -345.40014,-239.134615 z"
           id="path6711"
           style="opacity:0.40206185;fill:url(#radialGradient2208);fill-opacity:1;fill-rule:nonzero;stroke:none;stroke-width:1;marker:none;visibility:visible;display:inline;overflow:visible" />
        <path
           d="m -1559.2523,-150.68038 c 0,0 0,478.33079 0,478.33079 -142.8742,0.90045 -345.4002,-107.16966 -345.4002,-239.196175 0,-132.026537 159.4368,-239.134595 345.4002,-239.134615 z"
           id="path6713"
           style="opacity:0.40206185;fill:url(#radialGradient2210);fill-opacity:1;fill-rule:nonzero;stroke:none;stroke-width:1;marker:none;visibility:visible;display:inline;overflow:visible" />
      </g>
      <rect
         width="40.061924"
         height="40.061924"
         rx="3.7768631"
         ry="3.7768631"
         x="4.4147282"
         y="3.5233452"
         id="rect11518"
         style="fill:url(#radialGradient2212);fill-opacity:1;fill-rule:evenodd;stroke:#9b9b9b;stroke-width:1;stroke-linecap:butt;stroke-linejoin:bevel;stroke-miterlimit:10;stroke-opacity:1;stroke-dasharray:none;stroke-dashoffset:0;marker:none;visibility:visible;display:inline;overflow:visible" />
      <rect
         width="37.696587"
         height="37.696587"
         rx="2.9375589"
         ry="2.9375589"
         x="5.5973887"
         y="4.706007"
         id="rect11528"
         style="fill:none;stroke:white;stroke-width:0.99999976;stroke-linecap:butt;stroke-linejoin:bevel;stroke-miterlimit:10;stroke-opacity:1;stroke-dasharray:none;stroke-dashoffset:0;marker:none;visibility:visible;display:inline;overflow:visible" />
      <path
         d="m 23.906254,10.878347 c -4.070421,0.127526 -6.768746,2.08477 -6.768746,6.12174 l 0,4.120402 -0.916079,0 C 15.54928,21.120489 15,21.583436 15,22.163203 l 0,10.830771 c 0,0.579767 0.54928,1.042715 1.221429,1.042714 l 16.574099,0 C 33.467687,34.036688 34,33.57374 34,32.993974 l 0,-10.830771 c 0,-0.579766 -0.532313,-1.042714 -1.204472,-1.042714 l -0.933036,0 0.01697,-4.05313 c 0,-4.285336 -2.929191,-6.136118 -7.362492,-6.189012 -0.20669,-0.0025 -0.410528,-0.0063 -0.610714,0 z m 0.407138,2.707693 c 0.07485,-0.0017 0.160108,0 0.237502,0 4.918843,0 4.541647,3.498396 4.614281,4.540851 l 0,2.993598 -9.2625,0 0,-2.97678 c -0.01746,-1.034178 -0.304683,-4.451297 4.410717,-4.557669 z"
         id="path2086"
         style="opacity:0.69886361;fill:#888a85;fill-opacity:1;fill-rule:nonzero;stroke:none;stroke-width:0.9999997;marker:none;visibility:visible;display:block;overflow:visible" />
    </g>
  </g>
</svg>

<?xml version="1.0" encoding="UTF-8" standalone="no"?>
<!-- Created with Inkscape (http://www.inkscape.org/) -->
<svg
   xmlns:dc="http://purl.org/dc/elements/1.1/"
   xmlns:cc="http://creativecommons.org/ns#"
   xmlns:rdf="http://www.w3.org/1999/02/22-rdf-syntax-ns#"
   xmlns:svg="http://www.w3.org/2000/svg"
   xmlns="http://www.w3.org/2000/svg"
   xmlns:xlink="http://www.w3.org/1999/xlink"
   xmlns:sodipodi="http://sodipodi.sourceforge.net/DTD/sodipodi-0.dtd"
   xmlns:inkscape="http://www.inkscape.org/namespaces/inkscape"
   inkscape:export-ydpi="90.000000"
   inkscape:export-xdpi="90.000000"
   inkscape:export-filename="/home/jimmac/Desktop/wi-fi.png"
   width="48px"
   height="48px"
   id="svg11300"
   sodipodi:version="0.32"
   inkscape:version="0.46"
   sodipodi:docbase="/root/Desktop/Macesque/scalable/emblems"
   sodipodi:docname="emblem-nowrite.svg"
   inkscape:output_extension="org.inkscape.output.svg.inkscape"
   sodipodi:modified="true">
  <defs
     id="defs3">
    <linearGradient
       inkscape:collect="always"
       id="linearGradient5060">
      <stop
         style="stop-color:black;stop-opacity:1;"
         offset="0"
         id="stop5062" />
      <stop
         style="stop-color:black;stop-opacity:0;"
         offset="1"
         id="stop5064" />
    </linearGradient>
    <linearGradient
       id="linearGradient5048">
      <stop
         style="stop-color:black;stop-opacity:0;"
         offset="0"
         id="stop5050" />
      <stop
         id="stop5056"
         offset="0.5"
         style="stop-color:black;stop-opacity:1;" />
      <stop
         style="stop-color:black;stop-opacity:0;"
         offset="1"
         id="stop5052" />
    </linearGradient>
    <linearGradient
       id="linearGradient11520">
      <stop
         id="stop11522"
         offset="0.0000000"
         style="stop-color:#ffffff;stop-opacity:1.0000000;" />
      <stop
         id="stop11524"
         offset="1.0000000"
         style="stop-color:#dcdcdc;stop-opacity:1.0000000;" />
    </linearGradient>
    <linearGradient
       inkscape:collect="always"
       xlink:href="#linearGradient5048"
       id="linearGradient2206"
       gradientUnits="userSpaceOnUse"
       gradientTransform="matrix(2.774389,0,0,1.969706,-1892.179,-872.8854)"
       x1="302.85715"
       y1="366.64789"
       x2="302.85715"
       y2="609.50507" />
    <radialGradient
       inkscape:collect="always"
       xlink:href="#linearGradient5060"
       id="radialGradient2208"
       gradientUnits="userSpaceOnUse"
       gradientTransform="matrix(2.774389,0,0,1.969706,-1891.633,-872.8854)"
       cx="605.71429"
       cy="486.64789"
       fx="605.71429"
       fy="486.64789"
       r="117.14286" />
    <radialGradient
       inkscape:collect="always"
       xlink:href="#linearGradient5060"
       id="radialGradient2210"
       gradientUnits="userSpaceOnUse"
       gradientTransform="matrix(-2.774389,0,0,1.969706,112.7623,-872.8854)"
       cx="605.71429"
       cy="486.64789"
       fx="605.71429"
       fy="486.64789"
       r="117.14286" />
    <radialGradient
       inkscape:collect="always"
       xlink:href="#linearGradient11520"
       id="radialGradient2212"
       gradientUnits="userSpaceOnUse"
       gradientTransform="matrix(1.995058,0,0,1.995058,-24.32488,-35.70087)"
       cx="24.445690"
       cy="35.878170"
       fx="24.445690"
       fy="35.878170"
       r="20.530962" />
  </defs>
  <sodipodi:namedview
     stroke="#ef2929"
     fill="#729fcf"
     id="base"
     pagecolor="#ffffff"
     bordercolor="#666666"
     borderopacity="0.25490196"
     inkscape:pageopacity="0.0"
     inkscape:pageshadow="2"
     inkscape:zoom="5.9065399"
     inkscape:cx="44.10683"
     inkscape:cy="13.695271"
     inkscape:current-layer="layer1"
     showgrid="false"
     inkscape:grid-bbox="true"
     inkscape:document-units="px"
     inkscape:showpageshadow="false"
     inkscape:window-width="1440"
     inkscape:window-height="790"
     inkscape:window-x="0"
     inkscape:window-y="48" />
  <metadata
     id="metadata4">
    <rdf:RDF>
      <cc:Work
         rdf:about="">
        <dc:format>image/svg+xml</dc:format>
        <dc:type
           rdf:resource="http://purl.org/dc/dcmitype/StillImage" />
        <dc:creator>
          <cc:Agent>
            <dc:title>Jakub Steiner</dc:title>
          </cc:Agent>
        </dc:creator>
        <dc:source>http://jimmac.musichall.cz</dc:source>
        <cc:license
           rdf:resource="http://creativecommons.org/licenses/by-sa/2.0/" />
        <dc:title>Read Only Emblem</dc:title>
        <dc:subject>
          <rdf:Bag>
            <rdf:li>emblem</rdf:li>
            <rdf:li>read-only</rdf:li>
            <rdf:li>nowrite</rdf:li>
          </rdf:Bag>
        </dc:subject>
      </cc:Work>
      <cc:License
         rdf:about="http://creativecommons.org/licenses/by-sa/2.0/">
        <cc:permits
           rdf:resource="http://web.resource.org/cc/Reproduction" />
        <cc:permits
           rdf:resource="http://web.resource.org/cc/Distribution" />
        <cc:requires
           rdf:resource="http://web.resource.org/cc/Notice" />
        <cc:requires
           rdf:resource="http://web.resource.org/cc/Attribution" />
        <cc:permits
           rdf:resource="http://web.resource.org/cc/DerivativeWorks" />
        <cc:requires
           rdf:resource="http://web.resource.org/cc/ShareAlike" />
      </cc:License>
    </rdf:RDF>
  </metadata>
  <g
     id="layer1"
     inkscape:label="Layer 1"
     inkscape:groupmode="layer">
    <g
       id="g2197"
       transform="matrix(1.0535874,0,0,1.0535874,-1.4029422,-2.5545237)">
      <g
         id="g6707"
         transform="matrix(2.243788e-2,0,0,2.086758e-2,44.06795,40.547)">
        <rect
           y="-150.69685"
           x="-1559.2523"
           height="478.35718"
           width="1339.6335"
           id="rect6709"
           style="opacity:0.40206185;fill:url(#linearGradient2206);fill-opacity:1;fill-rule:nonzero;stroke:none;stroke-width:1;stroke-linecap:round;stroke-linejoin:miter;marker:none;marker-start:none;marker-mid:none;marker-end:none;stroke-miterlimit:4;stroke-dasharray:none;stroke-dashoffset:0;stroke-opacity:1;visibility:visible;display:inline;overflow:visible" />
        <path
           sodipodi:nodetypes="cccc"
           id="path6711"
           d="M -219.61876,-150.68038 C -219.61876,-150.68038 -219.61876,327.65041 -219.61876,327.65041 C -76.744594,328.55086 125.78146,220.48075 125.78138,88.454235 C 125.78138,-43.572302 -33.655436,-150.68036 -219.61876,-150.68038 z"
           style="opacity:0.40206185;fill:url(#radialGradient2208);fill-opacity:1;fill-rule:nonzero;stroke:none;stroke-width:1;stroke-linecap:round;stroke-linejoin:miter;marker:none;marker-start:none;marker-mid:none;marker-end:none;stroke-miterlimit:4;stroke-dasharray:none;stroke-dashoffset:0;stroke-opacity:1;visibility:visible;display:inline;overflow:visible" />
        <path
           style="opacity:0.40206185;fill:url(#radialGradient2210);fill-opacity:1;fill-rule:nonzero;stroke:none;stroke-width:1;stroke-linecap:round;stroke-linejoin:miter;marker:none;marker-start:none;marker-mid:none;marker-end:none;stroke-miterlimit:4;stroke-dasharray:none;stroke-dashoffset:0;stroke-opacity:1;visibility:visible;display:inline;overflow:visible"
           d="M -1559.2523,-150.68038 C -1559.2523,-150.68038 -1559.2523,327.65041 -1559.2523,327.65041 C -1702.1265,328.55086 -1904.6525,220.48075 -1904.6525,88.454235 C -1904.6525,-43.572302 -1745.2157,-150.68036 -1559.2523,-150.68038 z"
           id="path6713"
           sodipodi:nodetypes="cccc" />
      </g>
      <rect
         style="opacity:1;fill:url(#radialGradient2212);fill-opacity:1;fill-rule:evenodd;stroke:#9b9b9b;stroke-width:1;stroke-linecap:butt;stroke-linejoin:bevel;marker:none;marker-start:none;marker-mid:none;marker-end:none;stroke-miterlimit:10;stroke-dasharray:none;stroke-dashoffset:0;stroke-opacity:1;visibility:visible;display:inline;overflow:visible"
         id="rect11518"
         width="40.061924"
         height="40.061924"
         x="4.4147282"
         y="3.5233452"
         rx="3.7768631"
         ry="3.7768631" />
      <rect
         ry="2.9375589"
         rx="2.9375589"
         y="4.706007"
         x="5.5973887"
         height="37.696587"
         width="37.696587"
         id="rect11528"
         style="opacity:1;fill:none;fill-opacity:1;fill-rule:evenodd;stroke:#ffffff;stroke-width:0.99999976;stroke-linecap:butt;stroke-linejoin:bevel;marker:none;marker-start:none;marker-mid:none;marker-end:none;stroke-miterlimit:10;stroke-dasharray:none;stroke-dashoffset:0;stroke-opacity:1;visibility:visible;display:inline;overflow:visible" />
      <path
         inkscape:r_cy="true"
         inkscape:r_cx="true"
         id="path2086"
         d="M 23.906254,10.878347 C 19.835833,11.005873 17.137508,12.963117 17.137508,17.000087 L 17.137508,21.120489 L 16.221429,21.120489 C 15.54928,21.120489 15,21.583436 15,22.163203 L 15,32.993974 C 15,33.573741 15.54928,34.036689 16.221429,34.036688 L 32.795528,34.036688 C 33.467687,34.036688 34,33.57374 34,32.993974 L 34,22.163203 C 34,21.583437 33.467687,21.120489 32.795528,21.120489 L 31.862492,21.120489 L 31.87946,17.067359 C 31.87946,12.782023 28.950269,10.931241 24.516968,10.878347 C 24.310278,10.875868 24.10644,10.872076 23.906254,10.878347 z M 24.313392,13.58604 C 24.388241,13.584353 24.4735,13.58604 24.550894,13.58604 C 29.469737,13.58604 29.092541,17.084436 29.165175,18.126891 L 29.165175,21.120489 L 19.902675,21.120489 L 19.902675,18.143709 C 19.885214,17.109531 19.597992,13.692412 24.313392,13.58604 z"
         style="opacity:0.69886361;fill:#888a85;fill-opacity:1;fill-rule:nonzero;stroke:none;stroke-width:0.9999997;stroke-linecap:butt;stroke-linejoin:miter;marker:none;marker-start:none;marker-mid:none;marker-end:none;stroke-miterlimit:10;stroke-dasharray:none;stroke-dashoffset:0;stroke-opacity:1;visibility:visible;display:block;overflow:visible" />
    </g>
  </g>
</svg>
